X:80
T: Des Markgrafen junge Braut
N: A0089
O: Europa, Mitteleuropa, Deutschland
N: Forster V. No. 3.
R: Romanze, Ballade, Lied
M: 4/2
L: 1/4
K: F
F2 | F2G2A2c2 | BBA2G2G2 | F4z2
F2 | c2d2e2c2 | f4d4 | c4z4 |
F4c2f2 | e3dc2d2 | c3BA4 |
z2d2c3B | A2F2G2c2 | dBA2G2G2 | F6

@@@ Tune index: 80
